src/next/cmd/sc_chapternumberingdialog.svg

<svg height="16" viewBox="0 0 4.2333333 4.2333335" width="16" xmlns="http://www.w3.org/2000/svg" xmlns:xlink="http://www.w3.org/1999/xlink"><linearGradient id="a" gradientUnits="userSpaceOnUse" x1="102.30765" x2="106.01008" y1="39.141762" y2="209.45338"><stop offset="0" stop-color="#99999c"/><stop offset=".5" stop-color="#9c9ca1"/><stop offset="1" stop-color="#cdcdd1"/></linearGradient><linearGradient id="b" gradientUnits="userSpaceOnUse" x1="78.610847" x2="120.3435" y1="88.852417" y2="111.54715"><stop offset="0" stop-color="#fff"/><stop offset="1" stop-color="#ccc"/></linearGradient><linearGradient id="c" gradientUnits="userSpaceOnUse" x1="88.38102" x2="130.48599" y1="1008.9966" y2="1015.6953"><stop offset="0" stop-color="#7b7b7b"/><stop offset="1" stop-color="#797979" stop-opacity="0"/></linearGradient><clipPath id="d"><path d="m41.355614 933.74432h83.943996v117.52168h-83.943996z"/></clipPath><filter id="e" color-interpolation-filters="sRGB" height="1.073732" width="1.13754" x="-.06877" y="-.036866"><feGaussianBlur stdDeviation="1.0557314"/></filter><linearGradient id="f" gradientUnits="userSpaceOnUse" x1="98.40847" x2="115.25523" y1="30.758501" y2="77.140503"><stop offset="0" stop-color="#fff" stop-opacity=".683453"/><stop offset="1" stop-color="#fff" stop-opacity="0"/></linearGradient><linearGradient id="g" gradientTransform="matrix(.58291629 0 0 .66676377 62.177025 -566.68964)" gradientUnits="userSpaceOnUse" x1="63.011921" x2="63.011921" y1="945.89801" y2="1033.1569"><stop offset="0" stop-color="#545454" stop-opacity=".988"/><stop offset="1" stop-color="#ebebeb"/></linearGradient><linearGradient id="h" gradientTransform="matrix(.48045402 0 0 .66178602 128.73476 -578.51587)" gradientUnits="userSpaceOnUse" x1="-60.535713" x2="-60.357143" y1="979.50507" y2="1009.505"><stop offset="0" stop-color="#979797"/><stop offset=".148461" stop-color="#f6f6f6"/><stop offset=".28399727" stop-color="#e2e2e2"/><stop offset=".41198727" stop-color="#dedede"/><stop offset=".41198727" stop-color="#f6f6f6"/><stop offset="1" stop-color="#6b6b6b"/></linearGradient><linearGradient id="i" gradientTransform="matrix(.480454 0 0 .58309338 128.76683 499.76645)" gradientUnits="userSpaceOnUse" x1="-61.078979" x2="-60.6413" y1="-1056.658" y2="-1010.9131"><stop offset="0" stop-color="#777"/><stop offset=".18176934" stop-color="#a8a8a8"/><stop offset=".22864534" stop-color="#cdcdcd"/><stop offset=".34561315" stop-color="#f7f7f7"/><stop offset="1" stop-color="#fff"/></linearGradient><linearGradient id="j"><stop offset="0" stop-color="#06f"/><stop offset="1" stop-color="#80b3ff"/></linearGradient><linearGradient id="k" gradientUnits="userSpaceOnUse" x1="30.368584" x2="35.48856" xlink:href="#j" y1="33.42857" y2="-22.285715"/><linearGradient id="l" gradientUnits="userSpaceOnUse" x1="40.401783" x2="35.48856" xlink:href="#j" y1="7.080382" y2="-22.285715"/><linearGradient id="m" gradientUnits="userSpaceOnUse" x1="28.044643" x2="35.48856" xlink:href="#j" y1="17.008949" y2="-22.285715"/><path d="m20 .15429688a7.8457428 7.8457428 0 0 0 -7.845703 7.84570312v12a7.8457428 7.8457428 0 0 0 7.845703 7.845703h.154297v8.308594h-.154297a7.8457428 7.8457428 0 0 0 -7.845703 7.845703v12a7.8457428 7.8457428 0 0 0 7.845703 7.845703h28a7.8457428 7.8457428 0 0 0 7.845703-7.845703v-12a7.8457428 7.8457428 0 0 0 -7.845703-7.845703h-.154297v-8.308594h.154297a7.8457428 7.8457428 0 0 0 7.845703-7.845703v-12a7.8457428 7.8457428 0 0 0 -7.845703-7.84570312z" fill="url(#k)" transform="matrix(.0264583325 0 0 .0264583325 .224895875 .211666625)"/><path d="m20 8v12h8v24h-8v12h28v-12h-8v-24h8v-12z" fill="#bfd9ff" transform="matrix(.0264583325 0 0 .0264583325 .224895875 .211666625)"/><g fill="#404040" fill-opacity=".839216" transform="matrix(-.125 0 0 .125 0 -32.891665)"><path d="m-31.856726 269.48331h17.04006v2.1167h-17.04006z"/><path d="m-27.516666 273.71664h12.699999v2.11669h-12.699999z"/><path d="m-31.856724 284.29999h17.04006v2.1167h-17.04006z"/><path d="m-27.516665 288.53333h12.699999v2.11669h-12.699999z"/></g><g transform="matrix(.1 0 0 .1 .395693875 -25.67856875)"><path d="m20 .15429688a7.8457428 7.8457428 0 0 0 -7.845703 7.84570312v12a7.8457428 7.8457428 0 0 0 7.845703 7.845703h.154297v8.308594h-.154297a7.8457428 7.8457428 0 0 0 -7.845703 7.845703v12a7.8457428 7.8457428 0 0 0 7.845703 7.845703h28a7.8457428 7.8457428 0 0 0 7.845703-7.845703v-12a7.8457428 7.8457428 0 0 0 -7.845703-7.845703h-.154297v-8.308594h.154297a7.8457428 7.8457428 0 0 0 7.845703-7.845703v-12a7.8457428 7.8457428 0 0 0 -7.845703-7.84570312z" fill="url(#m)" transform="matrix(.26458333 0 0 .26458333 -7.408334 280.06665)"/><path d="m20 .15429688a7.8457428 7.8457428 0 0 0 -7.845703 7.84570312v12a7.8457428 7.8457428 0 0 0 7.845703 7.845703h.154297v8.308594h-.154297a7.8457428 7.8457428 0 0 0 -7.845703 7.845703v12a7.8457428 7.8457428 0 0 0 7.845703 7.845703h28a7.8457428 7.8457428 0 0 0 7.845703-7.845703v-12a7.8457428 7.8457428 0 0 0 -7.845703-7.845703h-.154297v-8.308594h.154297a7.8457428 7.8457428 0 0 0 7.845703-7.845703v-12a7.8457428 7.8457428 0 0 0 -7.845703-7.84570312z" fill="url(#l)" transform="matrix(.26458333 0 0 .26458333 -.094494 280.04775)"/><g fill="#bfd9ff"><path d="m-2.1166669 282.18332v3.175h2.1166666v6.35h-2.1166666v3.175h7.4083334v-3.175h-2.116667v-6.35h2.116667v-3.175z"/><path d="m5.1971726 282.16442v3.175h2.1166666v6.35h-2.1166666v3.175h7.4083334v-3.175h-2.116667v-6.35h2.116667v-3.175z"/></g></g><g transform="matrix(.03573107 0 0 .03573107 -.34827 -.340244)"><path d="m68.985809 46.546616h59.012391v81.453444h-59.012391z" fill="url(#a)"/><path d="m76.390663 53.951469h44.429127v66.643681h-44.429127z" fill="url(#b)"/><path clip-path="url(#d)" d="m92.81509 1029.6319c1.071428 1.4286 10.71429 15.3572 11.78571 13.5715 1.07143-1.7858 26.42857-25.3572 25-26.7858-1.42857-1.4285-33.928567-41.78567-33.928567-41.78567z" fill="url(#c)" fill-rule="evenodd" filter="url(#e)" opacity=".68" transform="matrix(.69309305 0 0 .69309305 41.153912 -600.6251)"/><path d="m72 48v48c14.790777-17.220934 34.04067-23.231931 48-25.4375v-22.5625z" fill="url(#f)" fill-rule="evenodd" transform="matrix(.92560668 0 0 .92560668 9.746984 9.522348)"/><path d="m83.795517 65.058746h29.619413v48.131544h-29.619413z" fill="url(#g)"/><path d="m87.497948 68.761177h22.214562v40.726693h-22.214562z" fill="#535353"/><path d="m91.200371 72.4636h14.809709v14.809709h-14.809709z" fill="url(#h)"/><path d="m91.200371-116.89272h14.809719v29.619408h-14.809719z" fill="url(#i)" transform="scale(1 -1)"/></g></svg>

<?xml version="1.0" encoding="UTF-8" standalone="no"?>
<svg
   xmlns:dc="http://purl.org/dc/elements/1.1/"
   xmlns:cc="http://creativecommons.org/ns#"
   xmlns:rdf="http://www.w3.org/1999/02/22-rdf-syntax-ns#"
   xmlns:svg="http://www.w3.org/2000/svg"
   xmlns="http://www.w3.org/2000/svg"
   xmlns:xlink="http://www.w3.org/1999/xlink"
   xmlns:sodipodi="http://sodipodi.sourceforge.net/DTD/sodipodi-0.dtd"
   xmlns:inkscape="http://www.inkscape.org/namespaces/inkscape"
   height="16"
   viewBox="0 0 4.2333333 4.2333335"
   width="16"
   version="1.1"
   id="svg36"
   sodipodi:docname="sc_chapternumberingdialog.svg"
   inkscape:version="0.92.4 (unknown)"
   inkscape:export-filename="/home/rizmut/Dokumen/Rizmut/Github/libreoffice-style-karasa-jaga/build/next/cmd/sc_chapternumberingdialog.png"
   inkscape:export-xdpi="96"
   inkscape:export-ydpi="96">
  <metadata
     id="metadata42">
    <rdf:RDF>
      <cc:Work
         rdf:about="">
        <dc:format>image/svg+xml</dc:format>
        <dc:type
           rdf:resource="http://purl.org/dc/dcmitype/StillImage" />
        <dc:title></dc:title>
      </cc:Work>
    </rdf:RDF>
  </metadata>
  <defs
     id="defs40">
    <linearGradient
       id="a-3"
       gradientUnits="userSpaceOnUse"
       x1="102.30765"
       x2="106.01008"
       y1="39.141762"
       y2="209.45338">
      <stop
         offset="0"
         stop-color="#99999c"
         id="stop2-6" />
      <stop
         offset=".5"
         stop-color="#9c9ca1"
         id="stop4-7" />
      <stop
         offset="1"
         stop-color="#cdcdd1"
         id="stop6" />
    </linearGradient>
    <linearGradient
       id="b-5"
       gradientUnits="userSpaceOnUse"
       x1="78.610847"
       x2="120.3435"
       y1="88.852417"
       y2="111.54715">
      <stop
         offset="0"
         stop-color="#fff"
         id="stop9" />
      <stop
         offset="1"
         stop-color="#ccc"
         id="stop11" />
    </linearGradient>
    <linearGradient
       id="c-3"
       gradientUnits="userSpaceOnUse"
       x1="88.38102"
       x2="130.48599"
       y1="1008.9966"
       y2="1015.6953">
      <stop
         offset="0"
         stop-color="#7b7b7b"
         id="stop14" />
      <stop
         offset="1"
         stop-color="#797979"
         stop-opacity="0"
         id="stop16" />
    </linearGradient>
    <clipPath
       id="d-5">
      <path
         inkscape:connector-curvature="0"
         d="M 41.355614,933.74432 H 125.29961 V 1051.266 H 41.355614 Z"
         id="path19" />
    </clipPath>
    <filter
       style="color-interpolation-filters:sRGB"
       id="e"
       height="1.073732"
       width="1.13754"
       x="-0.068769999"
       y="-0.036866002">
      <feGaussianBlur
         stdDeviation="1.0557314"
         id="feGaussianBlur22" />
    </filter>
    <linearGradient
       id="f"
       gradientUnits="userSpaceOnUse"
       x1="98.40847"
       x2="115.25523"
       y1="30.758501"
       y2="77.140503">
      <stop
         offset="0"
         stop-color="#fff"
         stop-opacity=".683453"
         id="stop25" />
      <stop
         offset="1"
         stop-color="#fff"
         stop-opacity="0"
         id="stop27" />
    </linearGradient>
    <linearGradient
       id="g"
       gradientTransform="matrix(0.58291629,0,0,0.66676377,62.177025,-566.68964)"
       gradientUnits="userSpaceOnUse"
       x1="63.011921"
       x2="63.011921"
       y1="945.89801"
       y2="1033.1569">
      <stop
         offset="0"
         stop-color="#545454"
         stop-opacity=".988"
         id="stop30" />
      <stop
         offset="1"
         stop-color="#ebebeb"
         id="stop32" />
    </linearGradient>
    <linearGradient
       id="h"
       gradientTransform="matrix(0.48045402,0,0,0.66178602,128.73476,-578.51587)"
       gradientUnits="userSpaceOnUse"
       x1="-60.535713"
       x2="-60.357143"
       y1="979.50507"
       y2="1009.505">
      <stop
         offset="0"
         stop-color="#979797"
         id="stop35" />
      <stop
         offset=".148461"
         stop-color="#f6f6f6"
         id="stop37" />
      <stop
         offset=".28399727"
         stop-color="#e2e2e2"
         id="stop39" />
      <stop
         offset=".41198727"
         stop-color="#dedede"
         id="stop41" />
      <stop
         offset=".41198727"
         stop-color="#f6f6f6"
         id="stop43" />
      <stop
         offset="1"
         stop-color="#6b6b6b"
         id="stop45" />
    </linearGradient>
    <linearGradient
       id="i"
       gradientTransform="matrix(0.480454,0,0,0.58309338,128.76683,499.76645)"
       gradientUnits="userSpaceOnUse"
       x1="-61.078979"
       x2="-60.6413"
       y1="-1056.658"
       y2="-1010.9131">
      <stop
         offset="0"
         stop-color="#777"
         id="stop48" />
      <stop
         offset=".18176934"
         stop-color="#a8a8a8"
         id="stop50" />
      <stop
         offset=".22864534"
         stop-color="#cdcdcd"
         id="stop52" />
      <stop
         offset=".34561315"
         stop-color="#f7f7f7"
         id="stop54" />
      <stop
         offset="1"
         stop-color="#fff"
         id="stop56" />
    </linearGradient>
  </defs>
  <sodipodi:namedview
     pagecolor="#ffffff"
     bordercolor="#666666"
     borderopacity="1"
     objecttolerance="10"
     gridtolerance="10"
     guidetolerance="10"
     inkscape:pageopacity="0"
     inkscape:pageshadow="2"
     inkscape:window-width="1366"
     inkscape:window-height="714"
     id="namedview38"
     showgrid="true"
     inkscape:zoom="20.85965"
     inkscape:cx="10.359212"
     inkscape:cy="5.3091794"
     inkscape:window-x="0"
     inkscape:window-y="28"
     inkscape:window-maximized="1"
     inkscape:current-layer="svg36">
    <inkscape:grid
       type="xygrid"
       id="grid849" />
  </sodipodi:namedview>
  <linearGradient
     id="a">
    <stop
       offset="0"
       stop-color="#06f"
       id="stop2" />
    <stop
       offset="1"
       stop-color="#80b3ff"
       id="stop4" />
  </linearGradient>
  <linearGradient
     id="b"
     gradientUnits="userSpaceOnUse"
     x1="30.368584"
     x2="35.48856"
     xlink:href="#a"
     y1="33.42857"
     y2="-22.285715" />
  <linearGradient
     id="c"
     gradientUnits="userSpaceOnUse"
     x1="40.401783"
     x2="35.48856"
     xlink:href="#a"
     y1="7.0803819"
     y2="-22.285715" />
  <linearGradient
     id="d"
     gradientUnits="userSpaceOnUse"
     x1="28.044643"
     x2="35.48856"
     xlink:href="#a"
     y1="17.008949"
     y2="-22.285715" />
  <g
     id="g999">
    <g
       transform="scale(0.125)"
       id="g867">
      <path
         style="fill:url(#b)"
         inkscape:connector-curvature="0"
         d="M 20,0.15429688 A 7.8457428,7.8457428 0 0 0 12.154297,8 V 20 A 7.8457428,7.8457428 0 0 0 20,27.845703 h 0.154297 v 8.308594 H 20 A 7.8457428,7.8457428 0 0 0 12.154297,44 V 56 A 7.8457428,7.8457428 0 0 0 20,63.845703 H 48 A 7.8457428,7.8457428 0 0 0 55.845703,56 V 44 A 7.8457428,7.8457428 0 0 0 48,36.154297 H 47.845703 V 27.845703 H 48 A 7.8457428,7.8457428 0 0 0 55.845703,20 V 8 A 7.8457428,7.8457428 0 0 0 48,0.15429688 Z"
         transform="matrix(0.21166666,0,0,0.21166666,1.799167,1.693333)"
         id="path10" />
      <path
         style="fill:#bfd9ff"
         inkscape:connector-curvature="0"
         d="m 20,8 v 12 h 8 V 44 H 20 V 56 H 48 V 44 H 40 V 20 h 8 V 8 Z"
         transform="matrix(0.21166666,0,0,0.21166666,1.799167,1.693333)"
         id="path12" />
      <g
         style="fill:#404040;fill-opacity:0.83921599"
         transform="matrix(-1,0,0,1,0,-263.13332)"
         id="g22">
        <path
           inkscape:connector-curvature="0"
           d="m -31.856726,269.48331 h 17.04006 v 2.1167 h -17.04006 z"
           id="path14" />
        <path
           inkscape:connector-curvature="0"
           d="m -27.516666,273.71664 h 12.699999 v 2.11669 h -12.699999 z"
           id="path16" />
        <path
           inkscape:connector-curvature="0"
           d="m -31.856724,284.29999 h 17.04006 v 2.1167 h -17.04006 z"
           id="path18" />
        <path
           inkscape:connector-curvature="0"
           d="m -27.516665,288.53333 h 12.699999 v 2.11669 h -12.699999 z"
           id="path20" />
      </g>
      <g
         transform="matrix(0.8,0,0,0.8,3.165551,-205.42855)"
         id="g34">
        <path
           style="fill:url(#d)"
           inkscape:connector-curvature="0"
           d="M 20,0.15429688 A 7.8457428,7.8457428 0 0 0 12.154297,8 V 20 A 7.8457428,7.8457428 0 0 0 20,27.845703 h 0.154297 v 8.308594 H 20 A 7.8457428,7.8457428 0 0 0 12.154297,44 V 56 A 7.8457428,7.8457428 0 0 0 20,63.845703 H 48 A 7.8457428,7.8457428 0 0 0 55.845703,56 V 44 A 7.8457428,7.8457428 0 0 0 48,36.154297 H 47.845703 V 27.845703 H 48 A 7.8457428,7.8457428 0 0 0 55.845703,20 V 8 A 7.8457428,7.8457428 0 0 0 48,0.15429688 Z"
           transform="matrix(0.26458333,0,0,0.26458333,-7.408334,280.06665)"
           id="path24" />
        <path
           style="fill:url(#c)"
           inkscape:connector-curvature="0"
           d="M 20,0.15429688 A 7.8457428,7.8457428 0 0 0 12.154297,8 V 20 A 7.8457428,7.8457428 0 0 0 20,27.845703 h 0.154297 v 8.308594 H 20 A 7.8457428,7.8457428 0 0 0 12.154297,44 V 56 A 7.8457428,7.8457428 0 0 0 20,63.845703 H 48 A 7.8457428,7.8457428 0 0 0 55.845703,56 V 44 A 7.8457428,7.8457428 0 0 0 48,36.154297 H 47.845703 V 27.845703 H 48 A 7.8457428,7.8457428 0 0 0 55.845703,20 V 8 A 7.8457428,7.8457428 0 0 0 48,0.15429688 Z"
           transform="matrix(0.26458333,0,0,0.26458333,-0.094494,280.04775)"
           id="path26" />
        <g
           style="fill:#bfd9ff"
           id="g32">
          <path
             inkscape:connector-curvature="0"
             d="m -2.1166669,282.18332 v 3.175 H -3e-7 v 6.35 h -2.1166666 v 3.175 h 7.4083334 v -3.175 h -2.116667 v -6.35 h 2.116667 v -3.175 z"
             id="path28" />
          <path
             inkscape:connector-curvature="0"
             d="m 5.1971726,282.16442 v 3.175 h 2.1166666 v 6.35 H 5.1971726 v 3.175 h 7.4083334 v -3.175 h -2.116667 v -6.35 h 2.116667 v -3.175 z"
             id="path30" />
        </g>
      </g>
    </g>
    <g
       id="g110"
       transform="matrix(0.03573107,0,0,0.03573107,-0.34826999,-0.34024397)">
      <path
         id="path94"
         d="M 68.985809,46.546616 H 127.9982 V 128.00006 H 68.985809 Z"
         inkscape:connector-curvature="0"
         style="fill:url(#a-3)" />
      <path
         id="path96"
         d="M 76.390663,53.951469 H 120.81979 V 120.59515 H 76.390663 Z"
         inkscape:connector-curvature="0"
         style="fill:url(#b-5)" />
      <path
         id="path98"
         transform="matrix(0.69309305,0,0,0.69309305,41.153912,-600.6251)"
         d="m 92.81509,1029.6319 c 1.071428,1.4286 10.71429,15.3572 11.78571,13.5715 1.07143,-1.7858 26.42857,-25.3572 25,-26.7858 -1.42857,-1.4285 -33.928567,-41.78567 -33.928567,-41.78567 z"
         clip-path="url(#d-5)"
         inkscape:connector-curvature="0"
         style="opacity:0.68000022;fill:url(#c-3);fill-rule:evenodd;filter:url(#e)" />
      <path
         id="path100"
         transform="matrix(0.92560668,0,0,0.92560668,9.746984,9.522348)"
         d="M 72,48 V 96 C 86.790777,78.779066 106.04067,72.768069 120,70.5625 V 48 Z"
         inkscape:connector-curvature="0"
         style="fill:url(#f);fill-rule:evenodd" />
      <path
         id="path102"
         d="M 83.795517,65.058746 H 113.41493 V 113.19029 H 83.795517 Z"
         inkscape:connector-curvature="0"
         style="fill:url(#g)" />
      <path
         id="path104"
         d="M 87.497948,68.761177 H 109.71251 V 109.48787 H 87.497948 Z"
         inkscape:connector-curvature="0"
         style="fill:#535353" />
      <path
         id="path106"
         d="M 91.200371,72.4636 H 106.01008 V 87.273309 H 91.200371 Z"
         inkscape:connector-curvature="0"
         style="fill:url(#h)" />
      <path
         id="path108"
         transform="scale(1,-1)"
         d="m 91.200371,-116.89272 h 14.809719 v 29.619408 H 91.200371 Z"
         inkscape:connector-curvature="0"
         style="fill:url(#i)" />
    </g>
  </g>
</svg>
